X: 5733
T: Cahal's
R: jig
M: 6/8
K: Dmajor
|:dcB FBc|dcB f2 e|def fed|e2 d cde|
dcB FBc|dcB f2 ^g|~a3 efd|cde edc:|
|:DEF A3|AFB AFA|~B2 A FAB|AFB AFE|
DEF A3|AFB AFA|dBA ~B2 A|FAB AFE:|

